icons/mark-github-16.svg

<svg xmlns="http://www.w3.org/2000/svg" width="16" height="16" viewBox="0 0 16 16"><path d="M8 0c4.42 0 8 3.58 8 8a8.013 8.013 0 01-5.45 7.59c-.4.08-.55-.17-.55-.38 0-.27.01-1.13.01-2.2 0-.75-.25-1.23-.54-1.48 1.78-.2 3.65-.88 3.65-3.95 0-.88-.31-1.59-.82-2.15.08-.2.36-1.02-.08-2.12 0 0-.67-.22-2.2.82-.64-.18-1.32-.27-2-.27-.68 0-1.36.09-2 .27-1.53-1.03-2.2-.82-2.2-.82-.44 1.1-.16 1.92-.08 2.12-.51.56-.82 1.28-.82 2.15 0 3.06 1.86 3.75 3.64 3.95-.23.2-.44.55-.51 1.07-.46.21-1.61.55-2.33-.66-.15-.24-.6-.83-1.23-.82-.67.01-.27.38.01.53.34.19.73.9.82 1.13.16.45.68 1.31 2.69.94 0 .67.01 1.3.01 1.49 0 .21-.15.45-.55.38A7.995 7.995 0 010 8c0-4.42 3.58-8 8-8z"/></svg>

<svg xmlns="http://www.w3.org/2000/svg" width="16" height="16" viewBox="0 0 16 16">
  <defs/>
  <path d="M8,0 C12.42,0 16,3.58 16,8 C15.999,11.437 13.806,14.491 10.55,15.59 C10.15,15.67 10,15.42 10,15.21 C10,14.94 10.01,14.08 10.01,13.01 C10.01,12.26 9.76,11.78 9.47,11.53 C11.25,11.33 13.12,10.65 13.12,7.58 C13.12,6.7 12.81,5.99 12.3,5.43 C12.38,5.23 12.66,4.41 12.22,3.31 C12.22,3.31 11.55,3.09 10.02,4.13 C9.38,3.95 8.7,3.86 8.02,3.86 C7.34,3.86 6.66,3.95 6.02,4.13 C4.49,3.1 3.82,3.31 3.82,3.31 C3.38,4.41 3.66,5.23 3.74,5.43 C3.23,5.99 2.92,6.71 2.92,7.58 C2.92,10.64 4.78,11.33 6.56,11.53 C6.33,11.73 6.12,12.08 6.05,12.6 C5.59,12.81 4.44,13.15 3.72,11.94 C3.57,11.7 3.12,11.11 2.49,11.12 C1.82,11.13 2.22,11.5 2.5,11.65 C2.84,11.84 3.23,12.55 3.32,12.78 C3.48,13.23 4,14.09 6.01,13.72 C6.01,14.39 6.02,15.02 6.02,15.21 C6.02,15.42 5.87,15.66 5.47,15.59 C2.29,14.53 0,11.54 0,8 C0,3.58 3.58,0 8,0 Z"/>
</svg>
